src/hbcore/resources/themes/icons/hbdefault/scalable/qtg_mono_work.svg

<?xml version="1.0" encoding="UTF-8" standalone="no"?>
<!DOCTYPE svg PUBLIC "-//W3C//DTD SVG 1.1 Tiny//EN" "http://www.w3.org/Graphics/SVG/1.1/DTD/svg11-tiny.dtd">
<svg xmlns="http://www.w3.org/2000/svg" xmlns:xlink="http://www.w3.org/1999/xlink" baseProfile="tiny" height="30px" version="1.1" viewBox="0 0 30 30" width="30px" x="0px" y="0px">
<g fill-opacity="0.5" stroke-opacity="0.5">
<rect fill="none" height="30" width="30"/>
</g>
<path d="M19,13v-11h-17v26h27v-15h-10zm-14,12v-20h11v2h-3v3h3v2h-3v3h3v2h-3v3h3v5h-11zm21-3h-6v-2h6v2zm0-4h-6v-2h6v2z"/>
<rect height="3" width="4" x="7" y="7"/>
<rect height="3" width="4" x="7" y="12"/>
<rect height="3" width="4" x="7" y="17"/>
</svg>

<?xml version="1.0" encoding="UTF-8"?>
<!DOCTYPE svg PUBLIC "-//W3C//DTD SVG 1.1 Tiny//EN" "http://www.w3.org/Graphics/SVG/1.1/DTD/svg11-tiny.dtd">
<svg baseProfile="tiny" height="30px" version="1.1" viewBox="0 0 30 30" width="30px" x="0px" xmlns="http://www.w3.org/2000/svg" xmlns:xlink="http://www.w3.org/1999/xlink" y="0px">
<g fill-opacity="0.5" stroke-opacity="0.5">
<rect fill="none" height="30" width="30"/>
</g>
<path d="M19,13V2H2v26h16h1h10V13H19z M5,25V5h11v2h-3v3h3v2h-3v3h3v2h-3v3h3v5H5z M26,22h-6v-2h6V22z M26,18h-6v-2h6V18z"/>
<rect height="3" width="4" x="7" y="7"/>
<rect height="3" width="4" x="7" y="12"/>
<rect height="3" width="4" x="7" y="17"/>
</svg>
